app/images/icons/angle-right.svg

<svg width="4" height="5" viewBox="0 0 4 5" fill="none" xmlns="http://www.w3.org/2000/svg">
<path d="M3.11032 2.76387L0.99852 4.87567C0.852557 5.02164 0.616532 5.02164 0.472122 4.87567L0.121191 4.52474C-0.0247719 4.37878 -0.0247719 4.14275 0.121191 3.99834L1.61809 2.50145L0.121191 1.00456C-0.0247719 0.858593 -0.0247719 0.622568 0.121191 0.478158L0.47057 0.12412C0.616532 -0.0218422 0.852557 -0.0218422 0.996967 0.12412L3.10877 2.23592C3.25628 2.38188 3.25628 2.61791 3.11032 2.76387Z" fill="white" fill-opacity="0.7"/>
</svg>

<svg width="4" height="5" fill="none" xmlns="http://www.w3.org/2000/svg"><path d="M3.11 2.764L1 4.876a.371.371 0 01-.527 0l-.35-.351a.371.371 0 010-.527l1.496-1.497L.121 1.005a.371.371 0 010-.527l.35-.354a.371.371 0 01.526 0l2.112 2.112a.372.372 0 01.001.528z" fill="#fff" fill-opacity=".7"/></svg>
